app/images/logo-white.svg

<svg width="53" height="30" viewBox="0 0 53 30" fill="none" xmlns="http://www.w3.org/2000/svg">
<path d="M18.4922 12.0076L14.8005 16.2822C14.4637 15.8159 13.978 15.4403 13.3433 15.1553C12.7086 14.8703 12.0674 14.7278 11.4197 14.7278C10.0985 14.7278 9.02332 15.2136 8.1943 16.1851C7.36528 17.1566 6.95078 18.3289 6.95078 19.7019C6.95078 21.0717 7.36528 22.2408 8.1943 23.1993C9.02332 24.1579 10.1244 24.6371 11.4974 24.6371C13 24.6371 14.1529 24.1579 14.956 23.1993L18.4922 27.5128C16.7824 29.1708 14.399 29.9998 11.342 29.9998C8.20725 29.9998 5.61659 29.0672 3.56995 27.2052C1.52332 25.3399 0.5 22.8366 0.5 19.7052C0.5 16.6223 1.52979 14.1352 3.58937 12.244C5.64896 10.3528 8.2202 9.40723 11.3031 9.40723C12.6762 9.40723 14.0298 9.64686 15.364 10.1261C16.6982 10.6022 17.7409 11.2304 18.4922 12.0076Z" fill="white"/>
<path d="M40.1741 29.3782H33.7621V18.886C33.7621 16.1658 32.8165 14.8057 30.9254 14.8057C29.8632 14.8057 29.0212 15.1943 28.3995 15.9715C27.7777 16.7487 27.4668 17.7332 27.4668 18.9249V29.3782H21.0938V0H27.4668V12.4741H27.5445C28.0109 11.6451 28.7362 10.9391 29.7207 10.3562C30.7052 9.77332 31.8321 9.48187 33.1015 9.48187C35.5368 9.48187 37.3243 10.2526 38.4642 11.794C39.6041 13.3355 40.1741 15.2073 40.1741 17.4093V29.3782Z" fill="white"/>
<path d="M51.1135 23.2574C51.8778 23.999 52.2599 24.8993 52.2599 25.9582C52.2599 27.0204 51.8778 27.9206 51.1135 28.659C50.3493 29.4006 49.436 29.7697 48.3739 29.7697C47.2858 29.7697 46.3532 29.407 45.576 28.6816C44.7988 27.953 44.4102 27.0625 44.4102 26.0003C44.4102 24.9381 44.7988 24.0314 45.576 23.2801C46.3532 22.5288 47.2858 22.1499 48.3739 22.1499C49.436 22.1499 50.3493 22.5191 51.1135 23.2574Z" fill="white"/>
</svg>

<svg width="53" height="30" fill="none" xmlns="http://www.w3.org/2000/svg"><path d="M18.492 12.008L14.8 16.282c-.336-.466-.822-.842-1.457-1.127a4.657 4.657 0 0 0-1.923-.427c-1.322 0-2.397.486-3.226 1.457-.829.972-1.243 2.144-1.243 3.517 0 1.37.414 2.539 1.243 3.497.83.959 1.93 1.438 3.303 1.438 1.503 0 2.656-.48 3.459-1.438l3.536 4.314C16.782 29.17 14.4 30 11.342 30c-3.135 0-5.725-.933-7.772-2.795C1.523 25.34.5 22.837.5 19.705c0-3.083 1.03-5.57 3.09-7.461 2.059-1.891 4.63-2.837 7.713-2.837 1.373 0 2.727.24 4.061.72 1.334.475 2.377 1.103 3.128 1.88zM40.174 29.378h-6.412V18.886c0-2.72-.946-4.08-2.837-4.08-1.062 0-1.904.388-2.526 1.166-.621.777-.932 1.761-.932 2.953v10.453h-6.373V0h6.373v12.474h.078c.466-.829 1.191-1.535 2.176-2.118.984-.583 2.111-.874 3.38-.874 2.436 0 4.223.77 5.363 2.312 1.14 1.541 1.71 3.413 1.71 5.615v11.97zM51.114 23.257c.764.742 1.146 1.642 1.146 2.701 0 1.062-.382 1.963-1.146 2.701a3.795 3.795 0 0 1-2.74 1.11c-1.088 0-2.02-.362-2.798-1.087-.777-.729-1.166-1.62-1.166-2.682 0-1.062.389-1.969 1.166-2.72a3.886 3.886 0 0 1 2.798-1.13c1.062 0 1.975.37 2.74 1.107z" fill="#fff"/></svg>
